X:192
T:Roger of Coverly
M:9/4
L:1/8
B:Thompson's Compleat Collection of 200 Favourite Country Dances, vol. 2 (London, 1765)
Z:Transcribed and edited by Flynn Titford-Mock, 2007
Z:abc's:AK/Fiddler's Companion
K:D
A,2 |: B,C D2 D2 D4 B2 A2F2D2 | E6 E2B,2D2 C4A,2 | B,CD2D2 D4B2 A2F2A2 | d4D2 D3ED2 C4A,2 ||
A2F2A2 B2G2B2 A2F2A2 | =c4E2 E3FD2 C4A,2 | A2F2A2 B2G2B2 A2F2A2 | d4D2 D3ED2 C4A,2 :|

